<?xml version="1.0" encoding="UTF-8"?>
<map version="1.10" tiledversion="1.12.1" orientation="orthogonal" renderorder="right-down" width="60" height="32" tilewidth="16" tileheight="16" infinite="0" nextlayerid="7" nextobjectid="5">
 <tileset firstgid="1" name="mainlev_build" tilewidth="16" tileheight="16" tilecount="4096" columns="64">
  <image source="PixelFantasy_Caves_1.0/mainlev_build.png" width="1024" height="1024"/>
 </tileset>
 <tileset firstgid="4097" name="furthest background" tilewidth="960" tileheight="480" tilecount="1" columns="0">
  <grid orientation="orthogonal" width="1" height="1"/>
  <tile id="0">
   <image source="PixelFantasy_Caves_1.0/background1.png" width="960" height="480"/>
  </tile>
 </tileset>
 <tileset firstgid="4098" name="second background" tilewidth="960" tileheight="480" tilecount="1" columns="0">
  <grid orientation="orthogonal" width="1" height="1"/>
  <tile id="0">
   <image source="PixelFantasy_Caves_1.0/background2.png" width="960" height="480"/>
  </tile>
 </tileset>
 <tileset firstgid="4099" name="third background" tilewidth="960" tileheight="480" tilecount="1" columns="0">
  <grid orientation="orthogonal" width="1" height="1"/>
  <tile id="0">
   <image source="PixelFantasy_Caves_1.0/background3.png" width="960" height="480"/>
  </tile>
 </tileset>
 <tileset firstgid="4100" name="fourth background a" tilewidth="960" tileheight="480" tilecount="1" columns="0">
  <grid orientation="orthogonal" width="1" height="1"/>
  <tile id="0">
   <image source="PixelFantasy_Caves_1.0/background4a.png" width="960" height="480"/>
  </tile>
 </tileset>
 <tileset firstgid="4101" name="props1" tilewidth="16" tileheight="16" tilecount="6400" columns="80">
  <image source="PixelFantasy_Caves_1.0/props1.png" width="1280" height="1280"/>
 </tileset>
 <objectgroup id="2" name="first background">
  <object id="1" gid="4097" x="2" y="514" width="960" height="480"/>
 </objectgroup>
 <objectgroup id="3" name="second background">
  <object id="2" gid="4098" x="2" y="515" width="960" height="480"/>
 </objectgroup>
 <objectgroup id="4" name="third background">
  <object id="3" gid="4099" x="1" y="514" width="960" height="480"/>
 </objectgroup>
 <objectgroup id="5" name="fourth background a">
  <object id="4" gid="4100" x="-1" y="515" width="960" height="480"/>
 </objectgroup>
 <layer id="6" name="the woods (for in depth decoration)" width="60" height="32">
  <data encoding="csv">
0,0,0,0,0,0,0,0,0,0,0,0,0,0,0,0,0,0,0,0,0,0,0,0,0,0,0,0,0,0,0,0,0,0,0,0,0,0,0,0,0,0,0,0,0,0,0,0,0,0,0,0,0,0,0,0,0,0,0,0,
0,0,0,0,0,0,0,0,0,0,0,0,0,0,0,0,0,0,0,0,0,0,0,0,0,0,0,0,0,0,0,0,0,0,0,0,0,0,0,0,0,0,0,0,0,0,0,0,0,0,0,0,0,0,0,0,0,0,0,0,
0,0,0,0,0,0,0,0,0,0,0,0,0,0,0,0,0,0,0,0,0,0,0,0,0,0,0,0,0,0,0,0,0,0,0,0,0,0,0,0,0,0,0,440,441,442,3112,3113,3114,3115,440,441,442,0,0,0,0,0,0,0,
0,0,0,0,0,0,0,0,0,0,0,0,0,0,0,0,0,0,0,0,0,0,0,0,0,0,0,0,0,0,0,0,0,0,0,0,440,441,442,0,0,0,0,504,505,506,3176,3177,3178,3179,504,505,506,0,0,0,0,0,0,0,
0,0,0,0,0,0,0,0,0,0,0,0,0,0,0,0,0,0,0,0,0,0,0,0,0,0,0,0,0,0,0,0,0,0,0,0,504,505,506,0,0,0,0,568,569,570,3240,3241,3242,3243,568,569,570,0,0,0,0,0,0,0,
0,0,0,0,0,0,0,0,0,0,0,0,0,0,0,0,0,0,0,0,0,0,0,0,0,0,0,0,0,0,0,0,0,0,0,0,568,569,570,3112,3113,3114,3115,112,113,114,115,116,117,118,119,120,121,122,0,0,0,0,0,0,
0,0,0,0,0,0,0,0,0,0,0,0,0,0,0,0,0,0,0,0,0,0,0,0,0,0,0,0,0,0,0,0,0,0,0,0,440,441,442,3176,3177,3178,3179,440,441,442,3112,3113,3114,3115,440,441,442,122,0,0,0,0,0,0,
0,0,0,0,0,0,0,0,0,0,0,0,0,0,0,0,0,0,0,0,5690,5691,5692,5693,5694,5695,5696,0,0,0,0,0,0,0,0,0,504,505,506,3240,3241,3242,3243,504,505,506,3176,3177,3178,3179,504,505,506,0,0,0,0,0,0,0,
0,0,0,0,0,0,0,0,0,0,0,0,0,0,0,0,0,0,0,0,5770,5771,5772,5773,5774,5775,5776,0,0,0,0,0,0,0,0,0,568,569,570,3304,3305,3306,3307,568,569,570,3240,3241,3242,3243,568,569,570,0,0,0,0,0,0,0,
0,0,0,0,0,0,0,0,0,0,0,0,0,0,0,0,0,0,0,0,5850,5851,5852,5853,5854,5855,5856,0,0,0,0,0,0,0,0,112,113,114,115,116,117,118,119,120,121,121,122,3433,3432,3433,119,120,121,122,4475,4476,0,0,0,0,
0,0,0,0,0,0,0,0,0,0,0,0,0,0,0,0,0,0,0,0,5930,5931,5932,5933,5934,5935,5936,0,0,0,0,0,0,0,0,0,440,441,442,3112,3113,3114,3115,440,441,442,3496,3497,3496,3497,4597,2508,4553,4554,4555,4556,0,0,0,0,
0,0,0,0,0,0,0,0,0,0,0,0,0,0,0,0,0,0,0,0,6010,6011,6012,6013,6014,6015,6016,0,0,0,0,0,0,0,0,0,504,505,506,3176,3177,3178,3179,504,505,506,4673,4674,4675,4676,4677,0,4633,4634,4635,4636,0,0,0,0,
0,0,0,0,0,0,0,0,0,0,0,0,0,0,0,0,0,0,0,0,6090,6091,6092,6093,6094,6095,6096,0,0,0,0,0,0,0,0,0,568,569,570,3240,3241,3242,3243,568,569,570,4753,4754,4755,4756,4757,0,0,0,0,0,0,0,0,0,
0,0,0,0,0,0,0,0,0,0,0,0,0,0,0,0,0,0,0,0,6170,6171,6172,6173,6174,6175,6176,0,0,0,0,0,0,0,0,0,440,441,442,3304,3305,3306,3307,440,441,442,4833,4834,4835,4836,4837,0,0,0,0,0,0,0,0,0,
0,0,0,0,0,0,0,0,0,0,0,0,0,0,0,0,0,0,0,0,0,0,0,0,0,0,0,0,0,0,0,0,0,0,0,0,504,505,506,0,0,0,0,504,505,506,0,0,0,0,0,0,0,0,0,0,0,0,0,0,
0,0,0,0,0,0,0,0,0,0,0,0,0,0,0,0,0,0,0,0,0,0,0,0,0,0,0,0,0,0,0,0,0,0,0,0,568,569,570,0,0,0,0,568,569,570,0,0,0,0,0,0,0,0,0,0,0,0,0,0,
0,0,0,0,0,0,0,0,0,0,0,0,0,0,0,0,0,0,0,0,0,0,0,0,0,0,0,0,0,0,0,0,0,0,0,0,440,441,442,0,0,0,0,440,441,442,0,0,0,0,0,0,0,0,0,0,0,0,0,0,
0,0,0,0,0,0,0,0,0,0,0,0,0,0,0,0,0,0,0,0,0,0,0,0,0,0,0,0,0,0,0,0,0,0,0,0,504,505,506,0,0,0,0,504,505,506,0,0,0,0,0,0,0,0,0,0,0,0,0,0,
0,0,0,0,0,0,0,0,0,0,0,0,0,0,0,0,0,0,0,0,0,0,0,0,0,0,0,0,0,0,0,0,0,0,0,0,568,569,570,0,0,0,0,568,569,570,0,0,0,0,0,0,0,0,0,0,0,0,0,0,
0,0,0,0,0,0,0,0,0,0,0,0,0,0,0,0,0,0,0,0,0,0,0,0,0,0,0,0,0,0,0,0,0,0,0,0,440,441,442,0,0,0,0,440,441,442,0,0,0,6478,6479,6480,6481,6482,6483,6484,6485,6486,6487,0,
0,0,0,0,0,0,0,0,0,0,0,0,0,0,0,0,0,0,0,0,0,0,0,0,0,0,0,0,0,0,0,0,0,0,0,0,504,505,506,3432,3433,3432,3433,504,505,506,0,0,0,6558,6559,6560,6561,6562,6563,6564,6565,6566,6567,0,
0,0,0,0,0,0,0,0,0,0,0,0,0,0,0,0,0,0,0,0,0,0,0,0,0,0,0,0,0,0,0,0,0,0,0,0,568,569,570,3496,3497,3496,3497,568,569,570,0,0,0,6638,6639,6640,6641,6642,6643,6644,6645,6646,6647,0,
0,0,0,0,0,0,0,0,0,0,0,0,0,0,0,0,0,0,0,0,0,0,0,0,0,0,0,0,0,0,0,0,0,0,0,0,440,441,442,3432,3433,3432,3433,440,441,442,0,0,0,6718,6719,6720,6721,6722,6723,6724,6725,6726,6727,0,
0,0,0,0,0,0,0,0,0,0,0,0,0,0,0,0,0,0,0,0,0,0,0,0,0,0,0,0,0,0,0,0,0,0,0,0,504,505,506,3432,3433,3432,3433,504,505,506,0,0,0,0,0,0,0,0,0,0,0,0,0,0,
0,0,0,0,0,0,0,0,0,0,0,0,0,0,0,0,0,0,0,0,0,0,0,0,0,0,0,0,0,0,0,0,0,0,0,0,568,569,570,3496,3497,3496,3497,568,569,570,0,0,0,0,0,0,0,0,0,0,0,0,0,0,
0,0,0,0,0,0,0,0,0,0,0,0,0,0,0,0,0,0,0,0,0,0,0,0,0,0,0,0,0,0,0,0,0,0,0,112,113,113,114,115,116,117,118,119,120,121,122,0,0,0,0,0,0,0,0,0,0,0,0,0,
0,0,0,0,0,0,0,0,0,0,0,0,0,0,0,0,0,0,0,0,0,0,0,0,0,0,0,0,0,0,0,0,0,0,0,0,440,441,442,3432,3433,3432,3433,440,441,442,0,0,0,0,0,0,0,0,0,0,0,0,0,0,
0,0,0,0,0,0,0,0,0,0,0,0,0,0,0,0,0,0,0,0,0,0,0,0,0,0,0,0,0,0,0,0,0,0,0,0,504,505,506,3432,3433,3432,3433,504,505,506,0,0,0,0,0,0,0,0,0,0,0,0,0,0,
0,0,0,0,0,0,0,0,0,0,0,0,0,0,0,0,0,0,0,0,0,0,0,0,0,0,0,0,0,0,0,0,0,0,0,0,568,569,570,3496,3497,3496,3497,568,569,570,0,0,0,0,0,0,0,0,0,0,0,0,0,0,
0,0,0,0,0,0,0,0,0,0,0,0,0,0,0,0,0,0,0,0,0,0,0,0,0,0,0,0,0,0,0,0,0,0,0,0,0,0,0,0,0,0,0,0,0,0,0,0,0,0,0,0,0,0,0,0,0,0,0,0,
0,0,0,0,0,0,0,0,0,0,0,0,0,0,0,0,0,0,0,0,0,0,0,0,0,0,0,0,0,0,0,0,0,0,0,0,0,0,0,0,0,0,0,0,0,0,0,0,0,0,0,0,0,0,0,0,0,0,0,0,
0,0,0,0,0,0,0,0,0,0,0,0,0,0,0,0,0,0,0,0,0,0,0,0,0,0,0,0,0,0,0,0,0,0,0,0,0,0,0,0,0,0,0,0,0,0,0,0,0,0,0,0,0,0,0,0,0,0,0,0
</data>
 </layer>
 <layer id="1" name="interact platform ( stones and shits)" width="60" height="32">
  <data encoding="csv">
131,131,131,131,131,131,131,131,131,131,131,131,131,131,131,131,131,131,131,131,131,131,131,131,131,131,131,131,131,131,131,131,131,131,131,131,131,131,131,131,131,131,131,131,131,131,131,131,131,131,131,131,131,131,131,131,131,131,131,131,
131,131,131,131,131,131,131,131,131,131,131,131,131,131,131,131,131,131,131,131,131,131,131,131,131,131,131,131,131,131,131,131,131,131,131,131,88,89,90,131,131,399,400,411,412,411,412,407,409,404,405,404,405,402,131,131,131,131,131,131,
131,132,146,147,85,86,284,285,139,271,272,141,141,143,144,407,277,278,279,143,144,143,144,271,101,1296,0,0,0,0,0,421,422,360,361,272,152,153,154,323,324,390,391,475,476,475,476,471,473,468,469,468,469,466,463,464,424,425,411,412,
195,196,210,211,149,150,156,157,264,397,137,267,269,323,324,407,404,405,88,89,90,284,285,139,165,1360,0,0,0,0,0,485,486,424,425,411,412,404,405,387,388,454,455,0,0,0,0,535,0,0,0,0,0,0,527,528,488,489,475,476,
71,264,265,397,411,412,409,411,412,404,405,399,400,387,388,471,468,469,152,153,154,156,157,139,229,1293,0,0,0,0,0,0,0,488,489,475,476,468,469,451,452,0,0,0,0,0,0,0,0,0,0,0,0,0,0,0,0,0,1176,1177,
135,962,963,964,475,476,473,475,476,468,469,463,464,451,452,535,0,0,421,422,404,405,399,400,390,391,0,0,0,0,0,0,0,0,0,0,0,0,0,0,0,0,0,0,0,0,0,0,0,0,0,0,0,0,0,0,0,0,1179,1180,
199,1026,1027,1028,1029,0,0,0,0,0,0,527,528,0,0,0,0,0,485,486,468,469,463,464,454,455,0,0,0,0,0,0,0,0,0,0,0,0,0,0,0,0,0,0,0,0,0,0,0,0,0,0,0,0,0,0,0,0,1185,1186,
1165,1166,0,0,0,0,0,0,0,0,0,0,0,0,0,0,0,0,0,0,0,0,527,528,0,0,0,0,0,0,0,0,0,0,0,0,0,0,0,0,0,0,0,0,0,0,0,0,0,0,0,0,0,0,0,0,0,0,1182,1183,
1295,1296,0,0,0,0,0,0,0,0,0,0,0,0,0,0,0,0,0,0,0,0,0,0,0,0,0,0,0,0,0,0,0,0,0,0,0,0,0,0,0,0,0,0,0,0,0,0,0,0,0,0,0,0,0,0,0,0,1182,1183,
1359,1360,0,0,0,0,0,0,0,0,0,0,0,0,0,0,0,0,0,0,0,0,0,0,0,0,0,0,0,0,0,0,0,0,0,0,0,0,0,0,0,0,0,0,0,0,0,0,0,0,0,0,0,0,0,0,0,0,1179,1180,
909,1169,579,580,0,0,0,0,0,0,0,0,0,0,0,0,0,0,0,0,0,0,0,0,0,0,0,0,0,0,0,0,0,0,0,0,0,0,0,0,0,0,0,0,0,0,0,0,0,0,0,0,0,0,0,0,0,0,730,731,
1485,1488,649,650,0,0,0,0,0,0,0,674,675,1490,1500,1501,1494,1495,643,644,0,0,0,0,0,0,0,0,0,0,0,0,0,0,0,0,0,0,0,0,0,0,0,616,617,730,731,733,733,1500,1501,1500,1492,1500,1500,1500,1503,1497,794,795,
1549,1552,713,714,1487,1488,1492,1497,1498,1500,1501,738,739,1554,1564,1565,1558,1559,707,708,1503,1492,1490,1488,1485,721,722,0,0,0,0,0,0,0,0,0,0,0,0,0,0,0,0,680,681,794,795,284,285,1564,1565,1564,1556,1564,1564,1564,1567,1561,1562,1554,
85,86,777,778,1551,1552,1556,1561,1562,1564,1565,802,803,85,86,2003,2143,2003,771,772,1567,1556,1554,1552,1549,785,786,0,0,0,0,0,0,0,829,830,831,1487,1487,733,735,1500,1501,744,745,101,159,161,291,291,292,156,157,284,285,71,131,132,196,196,
149,150,2017,2018,2019,2000,2001,1826,1827,156,157,1997,1998,149,150,2067,101,2067,156,157,264,265,71,397,264,265,1492,1495,0,0,0,0,0,0,957,958,959,921,1177,1822,1823,1824,1565,808,809,165,131,131,132,132,132,131,131,131,132,135,195,196,196,196,
146,147,2081,2082,2083,2064,2065,1890,1891,284,285,411,412,2143,2125,2009,165,88,89,90,143,144,135,271,146,147,397,1037,0,0,0,0,0,0,0,0,0,1182,1183,1886,1887,1888,2017,2018,2019,229,195,131,131,131,131,195,195,195,196,199,195,195,196,132,
210,211,2145,2146,2147,271,272,323,324,390,391,475,476,417,543,2073,229,152,153,154,271,272,199,267,210,211,1163,1296,0,0,0,0,0,0,0,0,0,1185,1186,2011,2012,1811,2081,2082,2083,2003,195,195,195,195,195,195,196,196,196,132,132,196,196,196,
323,324,399,404,405,399,400,387,388,454,455,0,0,481,421,422,407,411,412,409,404,405,399,400,411,412,390,391,0,0,0,0,0,0,0,0,0,1182,1183,2075,2076,1875,2145,2146,2147,2067,271,272,86,143,144,139,195,196,131,132,196,210,211,211,
387,388,463,468,469,463,464,451,452,0,0,0,0,0,485,486,471,475,476,473,468,469,463,464,475,476,454,455,0,829,830,831,0,0,0,0,0,1179,1180,412,1997,1998,2009,2125,88,89,90,85,86,156,157,137,195,196,195,196,132,132,132,132,
451,452,0,0,0,0,0,0,0,0,0,0,0,0,0,0,535,0,0,0,0,0,527,528,0,0,0,0,0,957,958,959,0,0,0,0,0,545,475,476,421,422,360,361,152,153,154,149,150,324,402,399,400,404,405,411,412,360,361,132,
0,0,0,0,0,0,0,0,0,0,0,0,0,0,0,0,0,0,0,0,0,0,0,0,0,0,0,0,0,0,0,0,0,0,0,0,0,0,0,0,485,486,424,425,399,400,411,412,387,388,466,463,464,468,469,475,476,424,425,132,
0,0,0,0,0,0,0,0,0,0,0,0,0,0,0,0,0,0,0,0,0,0,0,0,0,0,0,0,0,0,0,0,0,0,0,0,0,0,0,0,0,0,488,489,463,464,475,476,451,452,0,527,528,0,0,1063,1064,488,489,1309,
0,0,0,0,0,0,0,0,0,0,0,0,0,0,0,0,0,0,0,0,0,0,0,0,0,0,0,0,0,0,0,0,0,0,0,0,0,0,0,0,0,0,0,0,527,528,0,0,0,0,0,0,0,0,0,0,0,0,1372,1373,
0,0,0,0,0,0,0,0,0,0,0,0,0,0,0,0,0,0,0,0,0,616,617,0,0,0,0,0,0,0,0,0,0,0,0,0,0,0,0,0,0,0,0,0,0,0,0,0,0,0,0,0,0,0,0,0,0,6647,1185,1186,
0,0,0,0,0,0,0,0,0,0,0,0,0,0,0,0,0,0,0,0,0,680,681,721,722,0,0,0,0,0,0,0,0,829,830,831,0,0,0,0,0,0,0,0,0,0,0,0,0,0,0,0,0,0,0,0,0,6727,1182,1183,
0,0,0,0,0,0,0,0,0,0,0,0,0,0,730,731,1819,1820,1815,733,735,744,745,785,786,0,0,0,0,0,0,0,0,957,958,959,0,0,0,0,0,0,0,0,0,0,0,0,0,0,0,0,0,0,0,0,0,0,1182,1183,
0,0,0,0,0,0,0,0,0,0,0,0,0,0,794,795,1883,1884,1811,1808,1809,808,809,1168,1169,0,0,0,0,0,0,0,0,0,0,0,0,0,0,0,0,0,0,0,0,0,0,0,0,0,0,125,126,127,0,0,0,0,1308,1309,
0,0,0,0,0,0,0,0,0,0,0,674,675,1494,1495,2000,2000,2001,1875,1872,1873,1823,1824,1165,1166,0,0,0,0,0,0,0,0,0,0,0,0,0,0,0,0,0,0,0,0,0,0,0,0,0,0,189,190,191,0,0,0,613,1372,1373,
1500,1501,1492,1495,1487,1488,1500,1501,1495,1485,735,738,739,1558,1559,2000,2001,2001,2000,2001,1886,1887,1888,1295,1296,0,0,0,0,0,0,0,0,0,0,0,0,0,0,0,0,0,0,0,0,0,0,0,0,0,0,253,254,255,0,0,0,677,794,795,
1564,1565,1556,1559,1551,1552,1564,1565,1559,1549,2312,2014,2015,2015,2015,2003,2001,2065,2064,2065,1993,1994,1995,1359,1360,646,647,0,0,0,0,0,0,0,674,675,1485,1487,1488,1490,1492,1503,1500,1501,1494,1495,1497,1498,649,650,0,317,318,319,0,674,675,741,742,101,
1811,2125,1822,1823,1824,1813,1811,1868,1869,1870,2015,2014,2015,2014,2015,2015,2003,2003,2000,2001,2057,2058,2059,1872,1873,710,711,1497,1498,829,830,831,1492,1485,738,739,1549,1551,1552,1554,1556,1567,1564,1565,1558,1559,1561,1562,713,714,1487,1488,1487,1487,1488,738,739,805,806,165,
1875,2125,1886,1887,1888,1877,1875,2003,2003,2014,2015,2003,2073,2073,2067,2067,2067,2067,2064,2065,2121,2122,2123,135,199,135,775,1561,1562,957,958,959,1556,1549,802,803,131,131,131,131,131,131,131,131,131,131,131,132,777,778,1551,1552,1551,1551,1552,802,803,161,156,229
</data>
 </layer>
</map>
