<?xml version="1.0" encoding="UTF-8"?>
<map version="1.10" tiledversion="1.12.1" orientation="orthogonal" renderorder="right-down" width="60" height="32" tilewidth="16" tileheight="16" infinite="0" nextlayerid="8" nextobjectid="5">
 <tileset firstgid="1" name="mainlev_build" tilewidth="16" tileheight="16" tilecount="4096" columns="64">
  <image source="PixelFantasy_Caves_1.0/mainlev_build.png" width="1024" height="1024"/>
 </tileset>
 <tileset firstgid="4097" name="furthest background" tilewidth="960" tileheight="480" tilecount="1" columns="0">
  <grid orientation="orthogonal" width="1" height="1"/>
  <tile id="0">
   <image source="PixelFantasy_Caves_1.0/background1.png" width="960" height="480"/>
  </tile>
 </tileset>
 <tileset firstgid="4098" name="second background" tilewidth="960" tileheight="480" tilecount="1" columns="0">
  <grid orientation="orthogonal" width="1" height="1"/>
  <tile id="0">
   <image source="PixelFantasy_Caves_1.0/background2.png" width="960" height="480"/>
  </tile>
 </tileset>
 <tileset firstgid="4099" name="third background" tilewidth="960" tileheight="480" tilecount="1" columns="0">
  <grid orientation="orthogonal" width="1" height="1"/>
  <tile id="0">
   <image source="PixelFantasy_Caves_1.0/background3.png" width="960" height="480"/>
  </tile>
 </tileset>
 <tileset firstgid="4100" name="fourth background a" tilewidth="960" tileheight="480" tilecount="1" columns="0">
  <grid orientation="orthogonal" width="1" height="1"/>
  <tile id="0">
   <image source="PixelFantasy_Caves_1.0/background4a.png" width="960" height="480"/>
  </tile>
 </tileset>
 <tileset firstgid="4101" name="props1" tilewidth="16" tileheight="16" tilecount="6400" columns="80">
  <image source="PixelFantasy_Caves_1.0/props1.png" width="1280" height="1280"/>
 </tileset>
 <tileset firstgid="10501" name="props2" tilewidth="16" tileheight="16" tilecount="4096" columns="64">
  <image source="PixelFantasy_Caves_1.0/props2.png" width="1024" height="1024"/>
 </tileset>
 <objectgroup id="2" name="first background">
  <object id="1" gid="4097" x="2" y="514" width="960" height="480"/>
 </objectgroup>
 <objectgroup id="3" name="second background">
  <object id="2" gid="4098" x="2" y="515" width="960" height="480"/>
 </objectgroup>
 <objectgroup id="4" name="third background">
  <object id="3" gid="4099" x="1" y="514" width="960" height="480"/>
 </objectgroup>
 <objectgroup id="5" name="fourth background a">
  <object id="4" gid="4100" x="-1" y="515" width="960" height="480"/>
 </objectgroup>
 <layer id="7" name="another decoration lmao" width="60" height="32">
  <data encoding="csv">
0,0,0,0,0,0,0,0,0,0,0,0,0,0,0,0,0,0,0,0,0,0,0,0,0,0,0,0,0,0,0,0,0,0,0,0,0,0,0,0,0,0,0,0,0,0,0,0,0,0,0,0,0,0,0,0,0,0,0,0,
0,0,0,0,0,0,0,0,0,0,0,0,0,0,0,0,0,0,0,0,0,0,0,0,0,0,0,0,0,0,0,0,0,0,0,0,0,0,0,0,0,0,0,0,0,0,0,0,0,0,0,0,0,0,0,0,0,0,0,0,
0,0,0,0,0,0,0,0,0,0,0,0,0,0,0,0,0,0,0,0,0,0,0,0,0,0,0,0,0,0,0,0,0,0,0,0,0,0,2959,2960,2961,2962,2963,1205,1205,1206,0,0,0,0,1214,1214,11376,11377,11378,11379,11380,11381,11382,0,
0,0,0,0,0,0,0,0,0,0,0,0,0,0,0,0,0,0,0,0,0,0,0,0,0,0,0,0,0,0,0,0,0,0,0,0,0,0,3023,3024,3025,3026,3027,1269,1269,1270,0,0,0,0,1278,1278,11440,11441,11442,11443,11444,11445,11446,0,
0,9345,9346,9347,9348,0,0,0,0,0,0,0,0,0,0,0,0,0,0,0,0,0,0,0,0,0,0,0,0,0,0,0,0,0,2106,2107,2108,2109,2110,2111,3089,3090,3091,1333,1333,1334,0,0,0,0,1342,1342,11504,11505,11506,11507,11508,11509,11510,0,
0,9425,9426,9427,9428,2804,0,0,0,0,0,0,2805,2806,2807,2808,2809,0,0,0,0,0,0,0,0,0,0,0,0,0,0,0,0,0,2170,2171,2172,2173,2174,2175,3153,3154,3155,1397,1397,1398,0,0,0,0,1406,1406,11568,11569,11570,11571,11572,11573,11574,0,
0,9505,9506,9507,9508,2868,0,0,0,0,0,0,2869,2870,2871,2872,2873,0,0,0,0,0,0,0,0,0,0,0,0,0,0,0,0,0,2234,2235,2236,2237,2238,2239,0,0,0,1461,1461,1462,0,0,0,0,1470,1470,1471,0,0,0,0,0,0,0,
0,9585,9586,9587,9588,0,0,0,0,0,0,0,0,0,0,0,0,0,0,0,0,0,0,0,0,0,0,0,0,0,0,0,0,0,2298,2299,2300,2301,2302,2303,0,0,0,1205,1205,1206,0,0,0,0,1214,1214,1215,0,0,0,0,0,0,0,
0,9665,9666,9667,9668,0,0,0,0,0,0,0,0,0,0,0,0,0,0,0,0,0,0,0,0,0,0,0,0,0,0,0,0,0,2106,2107,2108,2109,2110,2111,0,0,0,1269,1269,1270,0,0,0,0,1278,1278,1279,0,0,0,0,0,0,0,
0,9745,9746,9747,9748,0,0,0,0,0,0,0,0,0,0,0,0,0,0,0,0,0,0,0,0,0,0,0,0,0,0,0,0,0,2170,2171,2172,2173,2174,2175,0,0,0,1333,1333,1334,0,0,0,0,1342,1342,1343,0,0,0,0,0,0,0,
0,9825,9826,9827,9828,0,0,0,0,0,0,0,0,1199,1200,1201,0,0,0,0,0,0,0,0,0,0,0,0,0,0,0,0,0,0,2234,2235,2236,2237,2238,2239,0,0,0,1397,1397,1398,0,0,0,0,1406,1406,1407,0,1199,1200,1201,0,0,0,
0,9905,9906,9907,9908,0,1199,1200,1201,0,0,0,0,0,0,0,0,0,1199,1200,1201,1199,1200,1201,0,0,0,0,0,0,0,0,0,0,2298,2299,2300,2301,2302,2303,0,0,0,1461,1461,1462,0,0,0,0,1470,1470,1471,0,0,0,0,0,0,0,
0,9985,9986,9987,9988,0,0,0,0,0,0,0,0,0,0,0,0,0,0,0,0,0,0,0,0,0,0,0,0,0,0,0,0,0,2106,2107,2108,2109,2110,2111,0,0,0,1525,1525,1526,0,0,0,0,1534,1534,1535,0,0,0,0,0,0,0,
0,10065,10066,10067,10068,0,0,0,0,0,0,0,0,0,0,0,0,0,0,0,0,0,0,0,0,0,0,0,0,0,0,0,0,0,2170,2171,2172,2173,2174,2175,0,0,0,0,0,0,0,0,0,0,0,0,0,0,0,0,0,0,0,0,
0,10145,10146,10147,10148,0,0,0,0,0,0,0,0,0,0,0,0,0,0,0,0,0,0,0,0,0,0,0,0,0,0,0,0,0,2234,2235,2236,2237,2238,2239,0,0,0,0,0,0,0,0,0,0,0,0,0,0,0,0,0,0,0,0,
0,0,0,0,0,0,0,0,0,0,0,0,0,0,0,0,0,0,0,0,0,0,0,0,0,0,0,0,0,0,0,0,0,0,2298,2299,2300,2301,2302,2303,0,0,0,0,0,0,0,0,0,0,0,0,0,0,0,0,0,0,0,0,
0,0,0,0,0,0,0,0,0,0,0,0,0,0,0,0,0,0,0,0,0,0,0,0,0,0,0,0,0,0,0,0,0,0,2106,2107,2108,2109,2110,2111,0,0,0,0,0,0,0,0,0,0,0,0,0,0,0,0,0,0,0,0,
0,0,0,0,0,0,0,0,0,0,0,0,0,0,0,0,0,0,0,0,0,0,0,0,0,0,0,0,0,0,0,0,0,0,2170,2171,2172,2173,2174,2175,0,0,1656,1657,1656,1657,0,0,0,0,0,0,0,0,0,0,0,0,0,0,
0,0,0,0,0,0,0,0,0,0,0,0,0,0,0,0,0,0,0,0,0,0,0,0,0,0,0,0,0,0,0,0,0,0,2234,2235,2236,2237,2238,2239,0,0,1720,1721,1720,1721,0,0,0,0,0,0,0,0,0,0,0,0,0,0,
0,0,0,0,0,0,0,0,0,0,0,0,0,0,0,0,0,0,0,0,0,0,0,0,0,0,0,0,0,0,0,0,0,0,2298,2299,2300,2301,2302,2303,0,0,1784,1785,1784,1785,0,0,0,0,0,0,0,0,0,0,0,0,0,0,
0,0,0,0,0,0,0,0,0,0,0,0,0,0,0,0,0,0,0,0,0,0,0,0,0,0,0,0,0,0,0,0,0,0,2106,2107,2108,2109,2110,2111,0,0,1848,1849,1848,1849,0,0,11386,11387,11388,11389,11390,11391,11392,11393,11394,0,0,0,
0,0,0,0,0,0,0,0,0,0,0,0,0,0,0,0,0,0,0,0,0,0,0,0,0,0,0,0,0,0,0,0,0,0,2170,2171,2172,2173,2174,2175,0,0,1912,1913,1912,1913,0,0,11450,11451,11452,11453,11454,11455,11456,11457,11458,0,0,0,
0,0,0,0,0,0,0,0,0,0,0,0,0,0,0,0,0,0,0,0,0,0,0,0,0,0,0,0,0,0,0,0,0,0,2234,2235,2236,2237,2238,2239,0,0,1976,1977,1976,1977,2104,2105,11514,11515,11516,11517,11518,11519,11520,11521,11522,0,0,0,
0,0,0,0,0,0,0,0,0,0,0,0,0,0,0,0,0,0,0,0,0,0,0,0,0,0,0,0,0,0,0,0,0,0,2298,2299,2300,2301,2302,2303,0,0,1656,1657,1656,1657,2168,2169,11578,11579,11580,11581,11582,11583,11584,11585,11586,0,0,0,
0,0,0,0,0,0,0,0,0,0,0,0,0,0,0,0,0,0,0,0,0,0,0,0,0,0,0,0,0,0,0,0,0,0,2362,2363,2364,2365,2366,2367,0,0,1720,1721,1720,1721,2232,2233,11642,11643,11644,11645,11646,11647,11648,11649,11650,0,0,0,
0,4610,4611,4612,4613,4614,4615,4616,4617,4618,4619,4620,0,0,0,0,0,0,0,0,0,0,0,0,0,0,0,0,0,0,0,0,0,0,2106,2107,2108,2109,2110,2111,0,0,1784,1785,1784,1785,2296,2297,0,0,0,0,0,0,0,0,0,0,0,0,
0,4690,4691,4692,4693,4694,4695,4696,4697,4698,4699,4700,0,0,0,0,0,0,0,0,0,0,0,0,0,0,0,0,0,0,0,0,0,0,2170,2171,2172,2173,2174,2175,0,0,1848,10937,10938,10939,10940,10941,10942,10943,10944,10945,10946,0,0,0,0,0,0,0,
0,4770,4771,4772,4773,4774,4775,4776,4777,4778,4779,4780,0,0,0,0,0,0,0,0,0,0,0,0,0,0,0,0,0,0,0,0,0,0,2234,2235,2236,2237,2238,2239,0,0,1912,11001,11002,11003,11004,11005,11006,11007,11008,11009,11010,0,0,0,0,0,0,0,
0,4850,4851,4852,4853,4854,4855,4856,4857,4858,4859,4860,0,0,0,0,0,0,0,0,0,0,0,0,0,0,2510,2511,0,0,0,0,0,0,2298,2299,2300,2301,2302,2303,0,0,1976,11065,11066,11067,11068,11069,11070,11071,11072,11073,11074,0,0,0,0,0,0,0,
0,0,0,0,0,0,0,0,0,0,0,0,0,0,0,0,0,0,0,0,0,0,0,0,0,0,2574,2575,0,0,0,0,0,0,2362,2363,2364,2365,2366,2367,0,0,0,11129,11130,11131,11132,11133,11134,11135,11136,11137,11138,0,0,0,0,0,0,0,
0,0,0,0,0,0,0,0,0,0,0,0,0,0,0,0,0,0,0,0,0,0,0,0,0,0,2638,2639,0,0,0,0,0,0,0,0,0,0,0,0,0,0,0,11193,11194,11195,11196,11197,11198,11199,11200,11201,11202,0,0,0,0,0,0,0,
0,0,0,0,0,0,0,0,0,0,0,0,0,0,0,0,0,0,0,0,0,0,0,0,0,0,0,0,0,0,0,0,0,0,0,0,0,0,0,0,0,0,0,11257,11258,11259,11260,11261,11262,11263,11264,11265,11266,0,0,0,0,0,0,0
</data>
 </layer>
 <layer id="6" name="the woods (for in depth decoration)" width="60" height="32">
  <data encoding="csv">
0,0,0,0,0,0,0,0,0,0,0,0,0,11401,11402,11403,11404,11405,11406,11407,11408,11409,11410,11411,11412,11413,11414,11415,11416,11417,11418,11419,0,0,0,0,0,0,0,0,0,0,0,0,0,0,0,0,0,0,0,0,0,0,0,0,0,0,0,0,
0,0,0,0,0,0,0,0,0,0,0,0,0,11465,11466,11467,11468,11469,11470,11471,11472,11473,11474,11475,11476,11477,11478,11479,11480,11481,11482,11483,0,0,0,0,0,0,0,0,0,0,0,0,0,0,0,0,0,0,0,0,0,0,0,0,0,0,0,0,
0,0,0,0,0,0,0,0,0,0,0,0,0,11529,11530,11531,11532,11533,11534,11535,11536,11537,11538,11539,11540,11541,11542,11543,11544,11545,11546,11547,0,0,0,0,0,0,0,0,0,0,0,440,441,442,3112,3113,3114,3115,440,441,442,0,0,0,0,0,0,0,
0,0,0,0,0,0,0,0,0,0,0,0,0,11593,11594,11595,11596,11597,11598,11599,11600,11601,11602,11603,11604,11605,11606,11607,11608,11609,11610,11611,0,0,0,0,440,441,442,0,5158,5159,5160,504,505,506,3176,3177,3178,3179,504,505,506,0,0,0,0,0,0,0,
0,0,0,0,11386,11387,11388,11389,11390,11391,11392,11393,11394,11657,11658,11659,11660,11661,11662,11663,11664,11665,11666,11667,11668,11669,11670,11671,11672,11673,11674,11675,0,0,0,0,504,505,506,0,5238,5239,5240,568,569,570,3240,3241,3242,3243,568,569,570,0,0,9597,9598,9599,9600,9601,
0,0,0,0,11450,11451,11452,11453,11454,11455,11456,11457,11458,11721,11722,11723,11724,11725,11726,11727,11728,11729,11730,11731,11732,11733,11734,11735,11736,11737,11738,11739,0,0,0,0,568,569,570,3112,3113,3114,3115,112,113,114,115,116,117,118,119,120,121,122,0,9677,9678,9679,9680,9681,
0,0,0,0,11514,11515,11516,11517,11518,11519,11520,11521,11522,11785,11786,11787,11788,11789,11790,11791,11792,11793,11794,11795,11796,11797,11798,11799,11800,11801,11802,11803,0,0,0,0,440,441,442,3176,3177,3178,3179,440,441,442,3112,3113,3114,3115,440,441,442,122,0,9757,9758,9759,9760,9761,
0,0,0,0,11578,11579,11580,11581,11582,11583,11584,11585,11586,11849,11850,11851,11852,11853,11854,11855,11856,11857,11858,11859,11860,11861,11862,11863,11864,11865,11866,11867,0,0,0,0,504,505,506,3240,3241,3242,3243,504,505,506,3176,3177,3178,3179,504,505,506,0,0,9837,9838,9839,9840,9841,
0,0,0,0,11642,11643,11644,11645,11646,11647,11648,11649,11650,11913,11914,11915,11916,11917,11918,11919,11920,11921,11922,11923,11924,11925,11926,11927,11928,11929,11930,11931,0,0,0,0,568,569,570,3304,3305,3306,3307,568,569,570,3240,3241,3242,3243,568,569,570,0,0,9917,9918,9919,9920,9921,
0,0,0,0,0,0,0,0,0,0,0,0,0,11977,11978,11979,11980,11981,11982,11983,11984,11985,11986,11987,11988,11989,11990,11991,11992,11993,11994,11995,0,0,0,112,113,114,115,116,117,118,119,120,121,121,122,3433,3432,3433,119,120,121,122,4475,9997,9998,9999,10000,10001,
0,0,0,0,0,0,0,0,0,0,0,0,0,0,0,0,0,0,0,0,5930,5931,5932,5933,5934,5935,5936,0,0,0,0,0,0,0,0,0,440,441,442,3112,3113,3114,3115,440,441,442,3496,3497,3496,3497,4597,2508,4553,4554,4555,10077,10078,10079,10080,10081,
0,0,0,0,0,0,0,0,0,0,0,0,0,0,0,0,0,0,0,0,6010,6011,6012,6013,6014,6015,6016,0,0,0,0,0,0,0,0,0,504,505,506,3176,3177,3178,3179,504,505,506,4673,4674,4675,4676,4677,0,4633,4634,4635,4636,0,0,0,0,
0,0,0,0,0,0,0,0,0,0,0,0,0,0,0,0,0,0,0,0,6090,6091,6092,6093,6094,6095,6096,0,0,0,0,0,0,0,0,0,568,569,570,3240,3241,3242,3243,568,569,570,4753,4754,4755,4756,4757,0,0,0,0,0,0,0,0,0,
0,0,0,0,0,0,0,0,0,0,0,0,0,0,0,0,0,0,0,0,6170,6171,6172,6173,6174,6175,6176,0,0,0,0,0,0,0,0,0,440,441,442,3304,3305,3306,3307,440,441,442,4833,4834,4835,4836,4837,0,0,0,0,0,0,0,0,0,
0,0,0,0,0,0,0,0,0,0,0,0,0,0,0,0,0,0,0,0,0,0,0,0,0,0,0,0,1610613311,509,510,511,1610613245,1610613309,0,0,504,505,506,0,0,0,0,504,505,506,0,0,0,0,0,0,0,0,0,0,0,0,0,0,
0,0,0,0,0,0,0,0,0,0,0,0,0,0,0,0,0,0,0,0,0,0,0,0,0,0,0,0,0,436,437,438,0,0,0,0,568,569,570,0,0,0,0,568,569,570,0,0,0,0,0,0,0,0,0,0,0,0,0,0,
0,0,0,0,0,0,0,0,0,0,0,0,0,0,0,0,0,0,0,0,0,0,0,0,0,0,0,0,0,500,501,502,0,0,0,0,440,441,442,0,0,0,0,440,441,442,0,0,0,0,0,0,0,0,0,0,0,0,0,0,
0,0,0,0,0,0,0,0,0,0,0,0,0,0,0,0,0,0,0,0,0,0,0,0,0,0,0,0,0,564,565,566,0,0,0,0,504,505,506,0,0,0,0,504,505,506,0,0,0,0,0,0,0,0,0,0,0,0,0,0,
0,0,0,0,0,0,0,0,0,10504,10505,10506,10507,10508,10509,10510,10511,10512,10513,10514,10515,10516,10517,10518,10519,10520,10521,10522,0,436,437,438,0,0,0,0,568,569,570,0,0,0,0,568,569,570,0,0,0,0,0,0,0,0,0,0,0,0,0,0,
0,0,0,0,0,0,0,0,0,10568,10569,10570,10571,10572,10573,10574,10575,10576,10577,10578,10579,10580,10581,10582,10583,10584,10585,10586,0,500,501,502,0,0,0,0,440,441,442,0,0,0,0,440,441,442,0,0,0,6478,6479,6480,6481,6482,6483,6484,6485,6486,6487,0,
0,0,0,0,0,0,0,0,0,10632,10633,10634,10635,10636,10637,10638,10639,10640,10641,10642,10643,10644,10645,10646,10647,10648,10649,10650,0,564,565,566,0,0,0,0,504,505,506,3432,3433,3432,3433,504,505,506,0,0,0,6558,6559,6560,6561,6562,6563,6564,6565,6566,6567,0,
0,0,0,0,0,0,0,0,0,10696,10697,10698,10699,10700,10701,10702,10703,10704,10705,10706,10707,10708,10709,10710,10711,10712,10713,10714,0,436,437,438,0,0,0,0,568,569,570,3496,3497,3496,3497,568,569,570,0,0,0,6638,6639,6640,6641,6642,6643,6644,6645,6646,6647,0,
0,0,0,0,0,0,0,0,0,10760,10761,10762,10763,10764,10765,10766,10767,10768,10769,10770,10771,10772,10773,10774,10775,10776,10777,10778,0,500,501,502,0,0,0,0,440,441,442,3432,3433,3432,3433,440,441,442,0,0,0,6718,6719,6720,6721,6722,6723,6724,6725,6726,6727,0,
0,0,0,0,0,0,0,0,0,10824,10825,10826,10827,10828,10829,10830,10831,10832,10833,10834,10835,10836,10837,10838,10839,10840,10841,10842,0,564,565,566,0,0,0,0,504,505,506,3432,3433,3432,3433,504,505,506,0,0,0,0,0,0,0,0,0,0,0,0,0,0,
0,0,0,0,0,0,0,0,0,10888,10889,10890,10891,10892,10893,10894,10895,10896,10897,10898,10899,10900,10901,10902,10903,10904,10905,10906,0,436,437,438,0,0,0,0,568,569,570,3496,3497,3496,3497,568,569,570,0,0,0,0,0,0,0,0,0,0,0,0,0,0,
0,0,0,10992,10993,10994,10995,10996,10997,10952,10953,10954,10955,10956,10957,10958,10959,10960,10961,10962,10963,10964,10965,10966,10967,10968,10969,10970,0,500,501,502,0,0,0,112,113,113,114,115,116,117,118,119,120,121,122,0,0,0,0,0,0,0,0,0,10159,10160,10161,0,
0,0,0,11056,11057,11058,11059,11060,11061,11016,11017,11018,11019,11020,11021,11022,11023,11024,11025,11026,11027,11028,11029,11030,11031,11032,11033,11034,0,564,565,566,0,432,433,434,440,441,442,3432,3433,3432,3433,440,441,442,0,0,0,0,0,0,0,0,0,0,10239,10240,10241,0,
0,0,0,11120,11121,11122,11123,11124,11125,11080,11081,11082,11083,11084,11085,11086,11087,11088,11089,11090,11091,11092,11093,11094,11095,11096,11097,11098,0,436,437,438,0,496,497,498,504,505,506,3432,3433,3432,3433,504,505,506,0,0,0,0,0,0,0,0,0,0,10319,10320,10321,0,
0,0,0,11184,11185,11186,11187,11188,11189,11144,11145,11146,11147,11148,11149,11150,11151,11152,11153,11154,11155,11156,11157,11158,11159,11160,11161,11162,0,500,501,502,0,560,561,562,568,569,570,3496,3497,3496,3497,568,569,570,0,0,0,0,0,0,0,0,0,0,10399,10400,10401,0,
0,0,0,0,0,0,0,0,0,0,0,0,0,0,0,0,0,0,0,0,0,0,0,0,0,0,0,0,0,564,565,566,0,432,433,434,0,0,0,0,0,0,0,0,0,0,0,0,0,0,0,0,0,0,0,0,10479,10480,10481,0,
0,0,0,0,0,0,0,0,0,0,0,0,0,0,0,0,0,0,0,0,0,0,0,0,0,0,0,0,0,0,0,0,0,496,497,498,0,0,0,0,0,0,0,0,0,0,0,0,0,0,0,0,0,0,0,0,0,0,0,0,
0,0,0,0,0,0,0,0,0,0,0,0,0,0,0,0,0,0,0,0,0,0,0,0,0,0,0,0,0,0,0,0,0,560,561,562,0,0,0,0,0,0,0,0,0,0,0,0,0,0,0,0,0,0,0,0,0,0,0,0
</data>
 </layer>
 <layer id="1" name="interact platform ( stones and shits)" width="60" height="32">
  <data encoding="csv">
131,131,131,131,131,131,131,131,131,131,131,131,131,131,131,131,131,131,131,131,131,131,131,131,131,131,131,131,131,131,131,131,131,131,131,131,131,131,131,131,131,131,131,131,131,131,131,131,131,131,131,131,131,131,131,131,131,131,131,131,
131,131,131,131,131,131,131,131,131,131,131,131,131,131,131,131,131,131,131,131,131,131,131,131,131,131,131,131,131,131,131,131,131,131,131,131,88,89,90,131,131,399,400,411,412,411,412,407,409,404,405,404,405,402,131,131,131,131,131,131,
131,132,146,147,85,86,284,285,139,271,272,141,141,143,144,407,277,278,279,143,144,143,144,271,101,1296,0,0,0,0,0,421,422,360,361,272,152,153,154,323,324,390,391,475,476,475,476,471,473,468,469,468,469,466,463,464,424,425,411,412,
195,196,210,211,149,150,156,157,264,397,137,267,269,323,324,407,404,405,88,89,90,284,285,139,165,1360,0,0,0,0,0,485,486,424,425,411,412,404,405,387,388,454,455,0,0,0,0,535,0,0,0,0,0,0,527,528,488,489,475,476,
71,264,265,397,411,412,409,411,412,404,405,399,400,387,388,471,468,469,152,153,154,156,157,139,229,1293,0,0,0,0,0,0,0,488,489,475,476,468,469,451,452,0,0,0,0,0,0,0,0,0,0,0,0,0,0,0,0,0,1176,1177,
135,962,963,964,475,476,473,475,476,468,469,463,464,451,452,535,0,0,421,422,404,405,399,400,390,391,0,0,0,0,0,0,0,0,0,0,0,0,0,0,0,0,0,0,0,0,0,0,0,0,0,0,0,0,0,0,0,0,1179,1180,
199,1026,1027,1028,1029,0,0,0,0,0,0,527,528,0,0,0,0,0,485,486,468,469,463,464,454,455,0,0,0,0,0,0,0,0,0,0,0,0,0,0,0,0,0,0,0,0,0,0,0,0,0,0,0,0,0,0,0,0,1185,1186,
1165,1166,0,0,0,0,0,0,0,0,0,0,0,0,0,0,0,0,0,0,0,0,527,528,0,0,0,0,0,0,0,0,0,0,0,0,0,0,0,0,0,0,0,0,0,0,0,0,0,0,0,0,0,0,0,0,0,0,1182,1183,
1295,1296,0,0,0,0,0,0,0,0,0,0,0,0,0,0,0,0,0,0,0,0,0,0,0,0,0,0,0,0,0,0,0,0,0,0,0,0,0,0,0,0,0,0,0,0,0,0,0,0,0,0,0,0,0,0,0,0,1182,1183,
1359,1360,0,0,0,0,0,0,0,0,0,0,0,0,0,0,0,0,0,0,0,0,0,0,0,0,0,0,0,0,0,0,0,0,0,0,0,0,0,0,0,0,0,0,0,0,0,0,0,0,0,0,0,0,0,0,0,0,1179,1180,
909,1169,579,580,0,0,0,0,0,0,0,0,0,0,0,0,0,0,0,0,0,0,0,0,0,0,0,0,0,0,0,0,0,0,0,0,0,0,0,0,0,0,0,0,0,0,0,0,0,0,0,0,0,0,0,0,0,0,730,731,
1485,1488,649,650,0,0,0,0,0,0,0,674,675,1490,1500,1501,1494,1495,643,644,0,0,0,0,0,0,0,0,0,0,0,0,0,0,0,0,0,0,0,0,0,0,0,616,617,730,731,733,733,1500,1501,1500,1492,1500,1500,1500,1503,1497,794,795,
1549,1552,713,714,1487,1488,1492,1497,1498,1500,1501,738,739,1554,1564,1565,1558,1559,707,708,1503,1492,1490,1488,1485,721,722,0,0,0,0,0,0,0,0,0,0,0,0,0,0,0,0,680,681,794,795,284,285,1564,1565,1564,1556,1564,1564,1564,1567,1561,1562,1554,
85,86,777,778,1551,1552,1556,1561,1562,1564,1565,802,803,85,86,2003,2143,2003,771,772,1567,1556,1554,1552,1549,785,786,0,0,0,0,0,0,0,829,830,831,1487,1487,733,735,1500,1501,744,745,101,159,161,291,291,292,156,157,284,285,71,131,132,196,196,
149,150,2017,2018,2019,2000,2001,1826,1827,156,157,1997,1998,149,150,2067,101,2067,156,157,264,265,71,397,264,265,1492,1495,0,0,0,0,0,0,957,958,959,921,1177,1822,1823,1824,1565,808,809,165,131,131,132,132,132,131,131,131,132,135,195,196,196,196,
146,147,2081,2082,2083,2064,2065,1890,1891,284,285,411,412,2143,2125,2009,165,88,89,90,143,144,135,271,146,147,397,1037,0,0,0,0,0,0,0,0,0,1182,1183,1886,1887,1888,2017,2018,2019,229,195,131,131,131,131,195,195,195,196,199,195,195,196,132,
210,211,2145,2146,2147,271,272,323,324,390,391,475,476,417,543,2073,229,152,153,154,271,272,199,267,210,211,1163,1296,0,0,0,0,0,0,0,0,0,1185,1186,2011,2012,1811,2081,2082,2083,2003,195,195,195,195,195,195,196,196,196,132,132,196,196,196,
323,324,399,404,405,399,400,387,388,454,455,0,0,481,421,422,407,411,412,409,404,405,399,400,411,412,390,391,0,0,0,0,0,0,0,0,0,1182,1183,2075,2076,1875,2145,2146,2147,2067,271,272,86,143,144,139,195,196,131,132,196,210,211,211,
387,388,463,468,469,463,464,451,452,0,0,0,0,0,485,486,471,475,476,473,468,469,463,464,475,476,454,455,0,829,830,831,0,0,0,0,0,1179,1180,412,1997,1998,2009,2125,88,89,90,85,86,156,157,137,195,196,195,196,132,132,132,132,
451,452,0,0,0,0,0,0,0,0,0,0,0,0,0,0,535,0,0,0,0,0,527,528,0,0,0,0,0,957,958,959,0,0,0,0,0,545,475,476,421,422,360,361,152,153,154,149,150,324,402,399,400,404,405,411,412,360,361,132,
0,0,0,0,0,0,0,0,0,0,0,0,0,0,0,0,0,0,0,0,0,0,0,0,0,0,0,0,0,0,0,0,0,0,0,0,0,0,0,0,485,486,424,425,399,400,411,412,387,388,466,463,464,468,469,475,476,424,425,132,
0,0,0,0,0,0,0,0,0,0,0,0,0,0,0,0,0,0,0,0,0,0,0,0,0,0,0,0,0,0,0,0,0,0,0,0,0,0,0,0,0,0,488,489,463,464,475,476,451,452,0,527,528,0,0,1063,1064,488,489,1309,
0,0,0,0,0,0,0,0,0,0,0,0,0,0,0,0,0,0,0,0,0,0,0,0,0,0,0,0,0,0,0,0,0,0,0,0,0,0,0,0,0,0,0,0,527,528,0,0,0,0,0,0,0,0,0,0,0,0,1372,1373,
0,0,0,0,0,0,0,0,0,0,0,0,0,0,0,0,0,0,0,0,0,616,617,0,0,0,0,0,0,0,0,0,0,0,0,0,0,0,0,0,0,0,0,0,0,0,0,0,0,0,0,0,0,0,0,0,0,6647,1185,1186,
0,0,0,0,0,0,0,0,0,0,0,0,0,0,0,0,0,0,0,0,0,680,681,721,722,0,0,0,0,0,0,0,0,829,830,831,0,0,0,0,0,0,0,0,0,0,0,0,0,0,0,0,0,0,0,0,0,6727,1182,1183,
0,0,0,0,0,0,0,0,0,0,0,0,0,0,730,731,1819,1820,1815,733,735,744,745,785,786,0,0,0,0,0,0,0,0,957,958,959,0,0,0,0,0,0,0,0,0,0,0,0,0,0,0,0,0,0,0,0,0,0,1182,1183,
0,0,0,0,0,0,0,0,0,0,0,0,0,0,794,795,1883,1884,1811,1808,1809,808,809,1168,1169,0,0,0,0,0,0,0,0,0,0,0,0,0,0,0,0,0,0,0,0,0,0,0,0,0,0,125,126,127,0,0,0,0,1308,1309,
0,0,0,0,0,0,0,0,0,0,0,674,675,1494,1495,2000,2000,2001,1875,1872,1873,1823,1824,1165,1166,0,0,0,0,0,0,0,0,0,0,0,0,0,0,0,0,0,0,0,0,0,0,0,0,0,0,189,190,191,0,0,0,613,1372,1373,
1500,1501,1492,1495,1487,1488,1500,1501,1495,1485,735,738,739,1558,1559,2000,2001,2001,2000,2001,1886,1887,1888,1295,1296,0,0,0,0,0,0,0,0,0,0,0,0,0,0,0,0,0,0,0,0,0,0,0,0,0,0,253,254,255,0,0,0,677,794,795,
1564,1565,1556,1559,1551,1552,1564,1565,1559,1549,2312,2014,2015,2015,2015,2003,2001,2065,2064,2065,1993,1994,1995,1359,1360,646,647,0,0,0,0,0,0,0,674,675,1485,1487,1488,1490,1492,1503,1500,1501,1494,1495,1497,1498,649,650,0,317,318,319,0,674,675,741,742,101,
1811,2125,1822,1823,1824,1813,1811,1868,1869,1870,2015,2014,2015,2014,2015,2015,2003,2003,2000,2001,2057,2058,2059,1872,1873,710,711,1497,1498,829,830,831,1492,1485,738,739,1549,1551,1552,1554,1556,1567,1564,1565,1558,1559,1561,1562,713,714,1487,1488,1487,1487,1488,738,739,805,806,165,
1875,2125,1886,1887,1888,1877,1875,2003,2003,2014,2015,2003,2073,2073,2067,2067,2067,2067,2064,2065,2121,2122,2123,135,199,135,775,1561,1562,957,958,959,1556,1549,802,803,131,131,131,131,131,131,131,131,131,131,131,132,777,778,1551,1552,1551,1551,1552,802,803,161,156,229
</data>
 </layer>
</map>
