{ "compressionlevel":-1,
 "height":40,
 "infinite":false,
 "layers":[
        {
         "draworder":"topdown",
         "id":14,
         "name":"ground",
         "objects":[
                {
                 "height":123,
                 "id":28,
                 "name":"",
                 "opacity":1,
                 "rotation":0,
                 "type":"",
                 "visible":true,
                 "width":900,
                 "x":0,
                 "y":695
                }],
         "opacity":1,
         "type":"objectgroup",
         "visible":true,
         "x":0,
         "y":0
        }],
 "nextlayerid":21,
 "nextobjectid":31,
 "orientation":"orthogonal",
 "renderorder":"right-down",
 "tiledversion":"1.12.1",
 "tileheight":19,
 "tilesets":[],
 "tilewidth":18,
 "type":"map",
 "version":"1.10",
 "width":50
}